X:4928
T:Paddy Fahy's Reel
O:england
M:C|
L:1/8
Q:180
C:Paddy Fahy
R:Reel
A:Co. Galway
K:G
A | ~_B2 dB DG_Bd | _Bc{d}cA D=FAc | A_BdB DG_Bd | _Bc{d}cA DGGA |
_BAGA ~_B2 G_B | AD=FA ~c2 Bc | dg{a}gf d2 (3Bcd |1 cBcA DGG :|2 cBcA DG
G2 ||
~g3  d Bcde | ~=f3  c ABcd | ~g3  d Bcde | dg~g2 bgaf |
gagf d2 {e}dc | (3Bcd BG DABc | dg{a}gf d2 (3Bcd | cBcA DGG2 :||


